X: 1790
T: Passing Shadows
C:William Smith, Glasgow,
B: australian traditional tunes wiki
M:3/4
L:1/8
R: Waltz
Q: 1/4=144
K:D
V:1 
"D"F2G2^G2|A4A2|"G"B6|"D"A6|"A7"A2B2c2|"D"d4e2|"G"d6|"A7"c6|
"A7"c2d3^d|"Em"e6|"G"B2c2d2|"A7"c6|"G"B2c2d2|"A7"c4B2|"Em"B6|"A7"A6||
"D"F2G2^G2|A4A2|"G"B6|"D"A6|"A7"A2B2c2|"D"d4e2|"G"d6|"A7"c6|
"A7"c2d3^d|"Em"e6|"G"B2c3B|"A7"A6|"Em"E2F2G2|"A7"F4E2|"D"D6|D2F2G2||
"D"A3AA2|A2f2d2|"G"B3BB2|"Em"B2g2e2|"A7"c4c2|c3Bc2|"G"B4A2|"A7"A2F2G2|
"D"A3AA2|A2f2d2|"G"B3BB2|"Em"B2g2e2|"A7"c4c2|"A7"B4A2|"D"d3dd2|d2F2A2||
|:"D"d6|"A7"c4B2|c2E2F2|"Em"G2F2E2|"A7"c6|B4A2|"D"F6-|F4A2|"D"f4f2|"A7"g4f2|"D"f4e2|1
"A7"e4A2|e4e2|f4e2|"Em"e2d2B2|"A7"A2F2A2:|2"G"d4B2|"D"A2F2A2|"A7"f4e2|"D"d6-|d6||
% abcbook-tune_id 6342d53a017c22102fd7e0c4


% abcbook-boost 0
% abcbook-tablature 
% abcbook-transpose 
% abcbook-lastupdated 1665324384036
% abcbook-soundfonts 
% abcbook-repeats 1
% NFF Book 2010

